static/img/kroki/bfdd4cc7a602c85867195e0c9c60f561.svg

<?xml version="1.0" encoding="us-ascii" standalone="no"?><svg xmlns="http://www.w3.org/2000/svg" xmlns:xlink="http://www.w3.org/1999/xlink" contentStyleType="text/css" height="374px" preserveAspectRatio="none" style="width:351px;height:374px;" version="1.1" viewBox="0 0 351 374" width="351px" zoomAndPan="magnify"><defs/><g><!--class azure_network_firewall_policy--><g id="elem_azure_network_firewall_policy"><rect codeLine="23" fill="#3D176E" height="39.7891" id="azure_network_firewall_policy" rx="2.5" ry="2.5" style="stroke:#000D19;stroke-width:0.5;" width="296" x="48" y="328.58"/><ellipse cx="63" cy="348.4745" fill="#ADD1B2" rx="11" ry="11" style="stroke:#181818;stroke-width:1.0;"/><path d="M65.9688,354.1152 Q65.3906,354.412 64.75,354.5527 Q64.1094,354.7089 63.4063,354.7089 Q60.9063,354.7089 59.5781,353.0683 Q58.2656,351.412 58.2656,348.287 Q58.2656,345.162 59.5781,343.5058 Q60.9063,341.8495 63.4063,341.8495 Q64.1094,341.8495 64.75,342.0058 Q65.4063,342.162 65.9688,342.4589 L65.9688,345.1777 Q65.3438,344.5995 64.75,344.3339 Q64.1563,344.0527 63.5313,344.0527 Q62.1875,344.0527 61.5,345.1308 Q60.8125,346.1933 60.8125,348.287 Q60.8125,350.3808 61.5,351.4589 Q62.1875,352.5214 63.5313,352.5214 Q64.1563,352.5214 64.75,352.2558 Q65.3438,351.9745 65.9688,351.3964 L65.9688,354.1152 Z " fill="#000000"/><text fill="#D9B8FF" font-family="Helvetica" font-size="17" lengthAdjust="spacing" textLength="254" x="82" y="354.3598">azure_network_firewall_policy</text></g><!--class microsoft_resource--><g id="elem_microsoft_resource"><rect codeLine="26" fill="#3D176E" height="39.7891" id="microsoft_resource" rx="2.5" ry="2.5" style="stroke:#000D19;stroke-width:0.5;" width="200" x="7" y="167.79"/><ellipse cx="22" cy="187.6845" fill="#ADD1B2" rx="11" ry="11" style="stroke:#181818;stroke-width:1.0;"/><path d="M24.9688,193.3252 Q24.3906,193.622 23.75,193.7627 Q23.1094,193.9189 22.4063,193.9189 Q19.9063,193.9189 18.5781,192.2783 Q17.2656,190.622 17.2656,187.497 Q17.2656,184.372 18.5781,182.7158 Q19.9063,181.0595 22.4063,181.0595 Q23.1094,181.0595 23.75,181.2158 Q24.4063,181.372 24.9688,181.6689 L24.9688,184.3877 Q24.3438,183.8095 23.75,183.5439 Q23.1563,183.2627 22.5313,183.2627 Q21.1875,183.2627 20.5,184.3408 Q19.8125,185.4033 19.8125,187.497 Q19.8125,189.5908 20.5,190.6689 Q21.1875,191.7314 22.5313,191.7314 Q23.1563,191.7314 23.75,191.4658 Q24.3438,191.1845 24.9688,190.6064 L24.9688,193.3252 Z " fill="#000000"/><text fill="#D9B8FF" font-family="Helvetica" font-size="17" lengthAdjust="spacing" textLength="158" x="41" y="193.5698">microsoft_resource</text></g><!--class policy--><g id="elem_policy"><rect codeLine="29" fill="#3D176E" height="39.7891" id="policy" rx="2.5" ry="2.5" style="stroke:#000D19;stroke-width:0.5;" width="90" x="242" y="167.79"/><ellipse cx="257" cy="187.6845" fill="#ADD1B2" rx="11" ry="11" style="stroke:#181818;stroke-width:1.0;"/><path d="M259.9688,193.3252 Q259.3906,193.622 258.75,193.7627 Q258.1094,193.9189 257.4063,193.9189 Q254.9063,193.9189 253.5781,192.2783 Q252.2656,190.622 252.2656,187.497 Q252.2656,184.372 253.5781,182.7158 Q254.9063,181.0595 257.4063,181.0595 Q258.1094,181.0595 258.75,181.2158 Q259.4063,181.372 259.9688,181.6689 L259.9688,184.3877 Q259.3438,183.8095 258.75,183.5439 Q258.1563,183.2627 257.5313,183.2627 Q256.1875,183.2627 255.5,184.3408 Q254.8125,185.4033 254.8125,187.497 Q254.8125,189.5908 255.5,190.6689 Q256.1875,191.7314 257.5313,191.7314 Q258.1563,191.7314 258.75,191.4658 Q259.3438,191.1845 259.9688,190.6064 L259.9688,193.3252 Z " fill="#000000"/><text fill="#D9B8FF" font-family="Helvetica" font-size="17" lengthAdjust="spacing" textLength="48" x="276" y="193.5698">policy</text></g><!--class resource--><g id="elem_resource"><rect codeLine="32" fill="#3D176E" height="39.7891" id="resource" rx="2.5" ry="2.5" style="stroke:#000D19;stroke-width:0.5;" width="113" x="139.5" y="7"/><ellipse cx="154.5" cy="26.8945" fill="#ADD1B2" rx="11" ry="11" style="stroke:#181818;stroke-width:1.0;"/><path d="M157.4688,32.5352 Q156.8906,32.832 156.25,32.9727 Q155.6094,33.1289 154.9063,33.1289 Q152.4063,33.1289 151.0781,31.4883 Q149.7656,29.832 149.7656,26.707 Q149.7656,23.582 151.0781,21.9258 Q152.4063,20.2695 154.9063,20.2695 Q155.6094,20.2695 156.25,20.4258 Q156.9063,20.582 157.4688,20.8789 L157.4688,23.5977 Q156.8438,23.0195 156.25,22.7539 Q155.6563,22.4727 155.0313,22.4727 Q153.6875,22.4727 153,23.5508 Q152.3125,24.6133 152.3125,26.707 Q152.3125,28.8008 153,29.8789 Q153.6875,30.9414 155.0313,30.9414 Q155.6563,30.9414 156.25,30.6758 Q156.8438,30.3945 157.4688,29.8164 L157.4688,32.5352 Z " fill="#000000"/><text fill="#D9B8FF" font-family="Helvetica" font-size="17" lengthAdjust="spacing" textLength="71" x="173.5" y="32.7798">resource</text></g><!--reverse link microsoft_resource to azure_network_firewall_policy--><g id="link_microsoft_resource_azure_network_firewall_policy"><path codeLine="35" d="M126.5383,223.5432 C143.6383,254.0632 168.1,297.69 185.23,328.25 " fill="none" id="microsoft_resource-backto-azure_network_firewall_policy" style="stroke:#FFAF37;stroke-width:2.0;"/><polygon fill="none" points="117.74,207.84,121.3039,226.4759,131.7727,220.6104,117.74,207.84" style="stroke:#FFAF37;stroke-width:2.0;"/></g><!--reverse link policy to azure_network_firewall_policy--><g id="link_policy_azure_network_firewall_policy"><path codeLine="36" d="M267.0702,223.4573 C249.5802,253.9773 224.53,297.69 207.02,328.25 " fill="none" id="policy-backto-azure_network_firewall_policy" style="stroke:#FFAF37;stroke-width:2.0;"/><polygon fill="none" points="276.02,207.84,261.8644,220.4741,272.276,226.4406,276.02,207.84" style="stroke:#FFAF37;stroke-width:2.0;"/></g><!--reverse link resource to microsoft_resource--><g id="link_resource_microsoft_resource"><path codeLine="37" d="M176.4617,62.7532 C159.3617,93.2732 134.9,136.9 117.77,167.46 " fill="none" id="resource-backto-microsoft_resource" style="stroke:#FFAF37;stroke-width:2.0;"/><polygon fill="none" points="185.26,47.05,171.2273,59.8204,181.6961,65.6859,185.26,47.05" style="stroke:#FFAF37;stroke-width:2.0;"/></g><!--reverse link resource to policy--><g id="link_resource_policy"><path codeLine="38" d="M215.9298,62.6673 C233.4198,93.1873 258.47,136.9 275.98,167.46 " fill="none" id="resource-backto-policy" style="stroke:#FFAF37;stroke-width:2.0;"/><polygon fill="none" points="206.98,47.05,210.724,65.6506,221.1356,59.6841,206.98,47.05" style="stroke:#FFAF37;stroke-width:2.0;"/></g><!--SRC=[ZP1FJm8n4CNl-ocQS2O1YGA95o0nUY56l6zAEuLckvtDjEi6rE-kAwifBN-ypllDUszcgoKmA2k_OoMKQo2NkKBRYXClsOm8cmKQ9DPJYglHE1OVqFghm9ANm1x1l87NWiV4wrQBme9px2QGvbmK6yBQoeEz9sxTjmJM1zJ2SETctfDUrnw2CdAwdYWLax5fRoI7upj8C2G9r263mK0Efp5oDUhYtN_4Ik-13SEdBT53KZE9-A4kjco9e6HowAz-jkCpbrBR3RiDPY-7JcI1ZkQhBPVOjBJYneKnpWC1-bq5Y-Ggc4wa6f-4dyx1cMXVn_Y-9iWj-0Qfo9KcQBWnUOL6YnrxpxBF3Yor87IeV4xWi2O1ePhonzI9xVkFVhz_EJ_hRF-3HhvfO4nqUry0]--></g></svg>

<svg xmlns="http://www.w3.org/2000/svg" width="351" height="374" viewBox="0 0 351 374"><rect width="296" height="39.789" x="48" y="328.58" fill="#3D176E" rx="2.5" ry="2.5" style="stroke:#000d19;stroke-width:.5"/><circle cx="63" cy="348.474" r="11" fill="#ADD1B2" style="stroke:#181818;stroke-width:1"/><path d="M65.969 354.115q-.578.297-1.219.438-.64.156-1.344.156-2.5 0-3.828-1.64-1.312-1.657-1.312-4.782t1.312-4.781q1.328-1.656 3.828-1.656.703 0 1.344.156.656.156 1.219.453v2.719q-.625-.579-1.219-.844-.594-.281-1.219-.281-1.343 0-2.031 1.078-.687 1.062-.687 3.156t.687 3.172q.688 1.062 2.031 1.062.625 0 1.219-.265.594-.281 1.219-.86z"/><text x="82" y="354.36" fill="#D9B8FF" font-family="Helvetica" font-size="17" textLength="254">azure_network_firewall_policy</text><rect width="200" height="39.789" x="7" y="167.79" fill="#3D176E" rx="2.5" ry="2.5" style="stroke:#000d19;stroke-width:.5"/><circle cx="22" cy="187.685" r="11" fill="#ADD1B2" style="stroke:#181818;stroke-width:1"/><path d="M24.969 193.325q-.578.297-1.219.438-.64.156-1.344.156-2.5 0-3.828-1.64-1.312-1.657-1.312-4.782t1.312-4.781q1.328-1.656 3.828-1.656.703 0 1.344.156.656.156 1.219.453v2.719q-.625-.578-1.219-.844-.594-.281-1.219-.281-1.343 0-2.031 1.078-.687 1.062-.687 3.156t.687 3.172q.688 1.062 2.031 1.062.625 0 1.219-.265.594-.281 1.219-.86z"/><text x="41" y="193.57" fill="#D9B8FF" font-family="Helvetica" font-size="17" textLength="158">microsoft_resource</text><rect width="90" height="39.789" x="242" y="167.79" fill="#3D176E" rx="2.5" ry="2.5" style="stroke:#000d19;stroke-width:.5"/><circle cx="257" cy="187.685" r="11" fill="#ADD1B2" style="stroke:#181818;stroke-width:1"/><path d="M259.969 193.325q-.578.297-1.219.438-.64.156-1.344.156-2.5 0-3.828-1.64-1.312-1.657-1.312-4.782t1.312-4.781q1.328-1.656 3.828-1.656.703 0 1.344.156.656.156 1.219.453v2.719q-.625-.578-1.219-.844-.594-.281-1.219-.281-1.344 0-2.031 1.078-.687 1.062-.687 3.156t.687 3.172q.688 1.062 2.031 1.062.625 0 1.219-.265.594-.281 1.219-.86z"/><text x="276" y="193.57" fill="#D9B8FF" font-family="Helvetica" font-size="17" textLength="48">policy</text><rect width="113" height="39.789" x="139.5" y="7" fill="#3D176E" rx="2.5" ry="2.5" style="stroke:#000d19;stroke-width:.5"/><circle cx="154.5" cy="26.895" r="11" fill="#ADD1B2" style="stroke:#181818;stroke-width:1"/><path d="M157.469 32.535q-.578.297-1.219.438-.64.156-1.344.156-2.5 0-3.828-1.64-1.312-1.657-1.312-4.782t1.312-4.781q1.328-1.656 3.828-1.656.703 0 1.344.156.656.156 1.219.453v2.719q-.625-.578-1.219-.844-.594-.281-1.219-.281-1.344 0-2.031 1.078-.687 1.062-.687 3.156t.687 3.172q.688 1.062 2.031 1.062.625 0 1.219-.265.594-.281 1.219-.86z"/><text x="173.5" y="32.78" fill="#D9B8FF" font-family="Helvetica" font-size="17" textLength="71">resource</text><g fill="none"><path d="M126.538 223.543c17.1 30.52 41.562 74.147 58.692 104.707" style="stroke:#ffaf37;stroke-width:2"/><path d="m117.74 207.84 3.564 18.636 10.469-5.866z" style="stroke:#ffaf37;stroke-width:2"/></g><g fill="none"><path d="M267.07 223.457c-17.49 30.52-42.54 74.233-60.05 104.793" style="stroke:#ffaf37;stroke-width:2"/><path d="m276.02 207.84-14.156 12.634 10.412 5.967z" style="stroke:#ffaf37;stroke-width:2"/></g><path fill="none" d="M176.462 62.753c-17.1 30.52-41.562 74.147-58.692 104.707m67.49-120.41-14.033 12.77 10.47 5.866zm30.67 15.617c17.49 30.52 42.54 74.233 60.05 104.793m-69-120.41 3.744 18.6 10.412-5.966z" style="stroke:#ffaf37;stroke-width:2"/></svg>
